img/logo.svg

<svg width="34" height="40" viewBox="0 0 34 40" fill="none" xmlns="http://www.w3.org/2000/svg">
<path d="M12.782 17.5302C13.8802 18.1372 14.9499 18.4183 16.1767 18.7401C17.9633 19.2094 19.987 19.7406 22.7205 21.3763C25.1483 22.8265 26.7436 26.0571 26.8021 29.6082C26.8578 33.0145 25.4811 35.8727 23.0247 37.4508C20.8353 38.8828 17.8705 39.7512 14.6857 39.8903C14.3858 39.9025 14.0868 39.9091 13.7888 39.91C10.506 39.9122 7.27262 39.1229 4.37157 37.611C1.93229 36.3365 0.81119 35.6676 0.765489 35.6437L0 35.1828L8.70173 16.8261L9.64431 14.8377L15.7368 1.98681C12.9433 1.71841 10.6997 2.99296 9.95421 3.66466C7.15932 6.18285 6.64947 9.1718 8.40753 12.8001L7.35784 15.0063C7.22787 14.7984 7.10362 14.5848 6.9808 14.3796L6.96509 14.3515C4.41584 9.66784 4.98282 5.4704 8.60461 2.21165C10.5712 0.442451 15.4597 -1.33096 20.2198 1.44017C22.1363 2.58544 23.0261 4.15369 23.7702 6.15756L23.7816 6.18988L34 37.0026L32.1006 37.6138L21.885 6.81662C21.1509 4.84085 20.444 3.87404 19.1915 3.12646C18.7261 2.85452 18.2366 2.62453 17.7291 2.4393L11.111 16.4003L10.2427 18.2272L2.57067 34.4015C3.14193 34.7233 4.04881 35.2179 5.30273 35.8727C11.331 39.0219 18.2246 38.2237 21.9193 35.8081C23.7944 34.6024 24.8413 32.3554 24.797 29.6405C24.7499 26.7921 23.4959 24.1474 21.6765 23.057C19.1886 21.5674 17.312 21.0756 15.6568 20.6414C14.3958 20.3097 13.1975 19.9964 11.9308 19.319L12.782 17.5302Z" fill="#C28767"/>
</svg>

<svg width="34" height="40" viewBox="0 0 34 40" fill="none" xmlns="http://www.w3.org/2000/svg"><path d="M12.782 17.53c1.098.607 2.168.888 3.395 1.21 1.786.47 3.81 1 6.544 2.636 2.427 1.45 4.023 4.681 4.081 8.232.056 3.406-1.32 6.265-3.777 7.843-2.19 1.432-5.154 2.3-8.34 2.44a20.353 20.353 0 01-10.314-2.28C1.933 36.337.812 35.668.766 35.644L0 35.183l8.702-18.357.942-1.988 6.093-12.851c-2.794-.269-5.037 1.006-5.783 1.678C7.16 6.183 6.65 9.172 8.408 12.8l-1.05 2.206c-.13-.208-.254-.421-.377-.626l-.016-.029c-2.55-4.683-1.982-8.88 1.64-12.14C10.57.443 15.46-1.33 20.22 1.442c1.916 1.144 2.806 2.713 3.55 4.717l.012.032L34 37.003l-1.9.61L21.886 6.818c-.734-1.976-1.441-2.943-2.694-3.69a9.047 9.047 0 00-1.462-.688L11.111 16.4l-.868 1.827L2.57 34.401c.57.322 1.478.817 2.732 1.472 6.028 3.149 12.922 2.35 16.616-.065 1.875-1.206 2.922-3.453 2.878-6.168-.047-2.848-1.301-5.493-3.12-6.583-2.488-1.49-4.365-1.981-6.02-2.416-1.261-.331-2.46-.645-3.726-1.322l.851-1.789z" fill="#C28767"/></svg>
